( Made using CamBam - http://www.cambam.co.uk )
( Carriage_Frame 11/15/2014 11:14:33 AM )
( T10 : 3.175 )
G21 G90 G40
G0 Z10.0
( T10 : 3.175 )
T10 M6
( 3.176 )
G17
M3 S1000
G0 X104.0 Y58.0
G0 Z10.0
G0 X104.0005 Y58.0
G1 F400.0 Z7.0
G1 F1500.0 X103.9998 Y57.9996 Z6.5
G1 Y58.0004 Z6.0
G1 X104.0005 Y58.0 Z5.5
G1 X103.9998 Y57.9996 Z5.0
G1 Y58.0004 Z4.5
G1 X104.0005 Y58.0 Z4.0
G1 X103.9998 Y57.9996 Z3.5
G1 Y58.0004 Z3.0
G1 X104.0005 Y58.0 Z2.5
G1 X103.9998 Y57.9996 Z2.0
G1 Y58.0004 Z1.5
G1 X104.0005 Y58.0 Z1.0
G1 X103.9998 Y57.9996 Z0.5
G1 Y58.0004 Z0.0
G1 X104.0005 Y58.0
G1 X103.9998 Y57.9996
G1 Y58.0004
G0 Z10.0
G0 X104.0005 Y64.0
G1 F400.0 Z7.0
G1 F1500.0 X103.9998 Y63.9996 Z6.5
G1 Y64.0004 Z6.0
G1 X104.0005 Y64.0 Z5.5
G1 X103.9998 Y63.9996 Z5.0
G1 Y64.0004 Z4.5
G1 X104.0005 Y64.0 Z4.0
G1 X103.9998 Y63.9996 Z3.5
G1 Y64.0004 Z3.0
G1 X104.0005 Y64.0 Z2.5
G1 X103.9998 Y63.9996 Z2.0
G1 Y64.0004 Z1.5
G1 X104.0005 Y64.0 Z1.0
G1 X103.9998 Y63.9996 Z0.5
G1 Y64.0004 Z0.0
G1 X104.0005 Y64.0
G1 X103.9998 Y63.9996
G1 Y64.0004
G0 Z10.0
G0 X172.0005 Y23.0
G1 F400.0 Z7.0
G1 F1500.0 X171.9998 Y22.9996 Z6.5
G1 Y23.0004 Z6.0
G1 X172.0005 Y23.0 Z5.5
G1 X171.9998 Y22.9996 Z5.0
G1 Y23.0004 Z4.5
G1 X172.0005 Y23.0 Z4.0
G1 X171.9998 Y22.9996 Z3.5
G1 Y23.0004 Z3.0
G1 X172.0005 Y23.0 Z2.5
G1 X171.9998 Y22.9996 Z2.0
G1 Y23.0004 Z1.5
G1 X172.0005 Y23.0 Z1.0
G1 X171.9998 Y22.9996 Z0.5
G1 Y23.0004 Z0.0
G1 X172.0005 Y23.0
G1 X171.9998 Y22.9996
G1 Y23.0004
G0 Z10.0
G0 X172.0005 Y17.0
G1 F400.0 Z7.0
G1 F1500.0 X171.9998 Y16.9996 Z6.5
G1 Y17.0004 Z6.0
G1 X172.0005 Y17.0 Z5.5
G1 X171.9998 Y16.9996 Z5.0
G1 Y17.0004 Z4.5
G1 X172.0005 Y17.0 Z4.0
G1 X171.9998 Y16.9996 Z3.5
G1 Y17.0004 Z3.0
G1 X172.0005 Y17.0 Z2.5
G1 X171.9998 Y16.9996 Z2.0
G1 Y17.0004 Z1.5
G1 X172.0005 Y17.0 Z1.0
G1 X171.9998 Y16.9996 Z0.5
G1 Y17.0004 Z0.0
G1 X172.0005 Y17.0
G1 X171.9998 Y16.9996
G1 Y17.0004
( 5mm+ )
S1000
G0 Z10.0
G0 X79.5 Y65.0
G0 Z10.0
G0 X80.5625 Y65.0
G1 F400.0 Z7.0
G2 F1500.0 X78.9688 Y64.0798 Z6.5 I-1.0625 J0.0
G2 Y65.9202 Z6.0 I0.5313 J0.9202
G2 X80.5625 Y65.0 Z5.5 I0.5313 J-0.9202
G2 X78.9688 Y64.0798 Z5.0 I-1.0625 J0.0
G2 Y65.9202 Z4.5 I0.5313 J0.9202
G2 X80.5625 Y65.0 Z4.0 I0.5313 J-0.9202
G2 X78.9688 Y64.0798 Z3.5 I-1.0625 J0.0
G2 Y65.9202 Z3.0 I0.5313 J0.9202
G2 X80.5625 Y65.0 Z2.5 I0.5313 J-0.9202
G2 X78.9688 Y64.0798 Z2.0 I-1.0625 J0.0
G2 Y65.9202 Z1.5 I0.5313 J0.9202
G2 X80.5625 Y65.0 Z1.0 I0.5313 J-0.9202
G2 X78.9688 Y64.0798 Z0.5 I-1.0625 J0.0
G2 Y65.9202 Z0.0 I0.5313 J0.9202
G2 X80.5625 Y65.0 I0.5313 J-0.9202
G2 X78.9688 Y64.0798 I-1.0625 J0.0
G2 Y65.9202 I0.5313 J0.9202
G0 Z10.0
G0 X50.5625 Y65.0
G1 F400.0 Z7.0
G2 F1500.0 X48.9688 Y64.0798 Z6.5 I-1.0625 J0.0
G2 Y65.9202 Z6.0 I0.5313 J0.9202
G2 X50.5625 Y65.0 Z5.5 I0.5313 J-0.9202
G2 X48.9688 Y64.0798 Z5.0 I-1.0625 J0.0
G2 Y65.9202 Z4.5 I0.5313 J0.9202
G2 X50.5625 Y65.0 Z4.0 I0.5313 J-0.9202
G2 X48.9688 Y64.0798 Z3.5 I-1.0625 J0.0
G2 Y65.9202 Z3.0 I0.5313 J0.9202
G2 X50.5625 Y65.0 Z2.5 I0.5313 J-0.9202
G2 X48.9688 Y64.0798 Z2.0 I-1.0625 J0.0
G2 Y65.9202 Z1.5 I0.5313 J0.9202
G2 X50.5625 Y65.0 Z1.0 I0.5313 J-0.9202
G2 X48.9688 Y64.0798 Z0.5 I-1.0625 J0.0
G2 Y65.9202 Z0.0 I0.5313 J0.9202
G2 X50.5625 Y65.0 I0.5312 J-0.9202
G2 X48.9688 Y64.0798 I-1.0625 J0.0
G2 Y65.9202 I0.5313 J0.9202
G0 Z10.0
G0 X12.4125 Y30.0
G1 F400.0 Z7.0
G2 F1500.0 X9.5438 Y28.3437 Z6.5 I-1.9125 J0.0
G2 Y31.6563 Z6.0 I0.9562 J1.6563
G2 X12.4125 Y30.0 Z5.5 I0.9563 J-1.6563
G2 X9.5438 Y28.3437 Z5.0 I-1.9125 J0.0
G2 Y31.6563 Z4.5 I0.9562 J1.6563
G2 X12.4125 Y30.0 Z4.0 I0.9563 J-1.6563
G2 X9.5438 Y28.3437 Z3.5 I-1.9125 J0.0
G2 Y31.6563 Z3.0 I0.9562 J1.6563
G2 X12.4125 Y30.0 Z2.5 I0.9563 J-1.6563
G2 X9.5438 Y28.3437 Z2.0 I-1.9125 J0.0
G2 Y31.6563 Z1.5 I0.9563 J1.6563
G2 X12.4125 Y30.0 Z1.0 I0.9562 J-1.6563
G2 X9.5437 Y28.3437 Z0.5 I-1.9125 J0.0
G2 X9.5438 Y31.6563 Z0.0 I0.9563 J1.6563
G2 X12.4125 Y30.0 I0.9562 J-1.6563
G2 X9.5437 Y28.3437 I-1.9125 J0.0
G2 X9.5438 Y31.6563 I0.9563 J1.6563
G0 Z10.0
G0 X50.5625 Y10.0
G1 F400.0 Z7.0
G2 F1500.0 X48.9688 Y9.0798 Z6.5 I-1.0625 J0.0
G2 Y10.9202 Z6.0 I0.5313 J0.9202
G2 X50.5625 Y10.0 Z5.5 I0.5313 J-0.9202
G2 X48.9688 Y9.0798 Z5.0 I-1.0625 J0.0
G2 Y10.9202 Z4.5 I0.5313 J0.9202
G2 X50.5625 Y10.0 Z4.0 I0.5313 J-0.9202
G2 X48.9688 Y9.0798 Z3.5 I-1.0625 J0.0
G2 Y10.9202 Z3.0 I0.5313 J0.9202
G2 X50.5625 Y10.0 Z2.5 I0.5313 J-0.9202
G2 X48.9688 Y9.0798 Z2.0 I-1.0625 J0.0
G2 Y10.9202 Z1.5 I0.5313 J0.9202
G2 X50.5625 Y10.0 Z1.0 I0.5313 J-0.9202
G2 X48.9688 Y9.0798 Z0.5 I-1.0625 J0.0
G2 Y10.9202 Z0.0 I0.5313 J0.9202
G2 X50.5625 Y10.0 I0.5312 J-0.9202
G2 X48.9688 Y9.0798 I-1.0625 J0.0
G2 Y10.9202 I0.5313 J0.9202
G0 Z10.0
G0 X80.5625 Y10.0
G1 F400.0 Z7.0
G2 F1500.0 X78.9688 Y9.0798 Z6.5 I-1.0625 J0.0
G2 Y10.9202 Z6.0 I0.5313 J0.9202
G2 X80.5625 Y10.0 Z5.5 I0.5313 J-0.9202
G2 X78.9688 Y9.0798 Z5.0 I-1.0625 J0.0
G2 Y10.9202 Z4.5 I0.5313 J0.9202
G2 X80.5625 Y10.0 Z4.0 I0.5313 J-0.9202
G2 X78.9688 Y9.0798 Z3.5 I-1.0625 J0.0
G2 Y10.9202 Z3.0 I0.5313 J0.9202
G2 X80.5625 Y10.0 Z2.5 I0.5313 J-0.9202
G2 X78.9688 Y9.0798 Z2.0 I-1.0625 J0.0
G2 Y10.9202 Z1.5 I0.5313 J0.9202
G2 X80.5625 Y10.0 Z1.0 I0.5313 J-0.9202
G2 X78.9688 Y9.0798 Z0.5 I-1.0625 J0.0
G2 Y10.9202 Z0.0 I0.5313 J0.9202
G2 X80.5625 Y10.0 I0.5313 J-0.9202
G2 X78.9688 Y9.0798 I-1.0625 J0.0
G2 Y10.9202 I0.5313 J0.9202
G0 Z10.0
G0 X120.4125 Y30.0
G1 F400.0 Z7.0
G2 F1500.0 X117.5438 Y28.3437 Z6.5 I-1.9125 J0.0
G2 Y31.6563 Z6.0 I0.9562 J1.6563
G2 X120.4125 Y30.0 Z5.5 I0.9562 J-1.6563
G2 X117.5438 Y28.3437 Z5.0 I-1.9125 J0.0
G2 Y31.6563 Z4.5 I0.9562 J1.6563
G2 X120.4125 Y30.0 Z4.0 I0.9562 J-1.6563
G2 X117.5438 Y28.3437 Z3.5 I-1.9125 J0.0
G2 Y31.6563 Z3.0 I0.9562 J1.6563
G2 X120.4125 Y30.0 Z2.5 I0.9562 J-1.6563
G2 X117.5438 Y28.3437 Z2.0 I-1.9125 J0.0
G2 Y31.6563 Z1.5 I0.9562 J1.6563
G2 X120.4125 Y30.0 Z1.0 I0.9562 J-1.6563
G2 X117.5438 Y28.3437 Z0.5 I-1.9125 J0.0
G2 Y31.6563 Z0.0 I0.9563 J1.6563
G2 X120.4125 Y30.0 I0.9562 J-1.6563
G2 X117.5438 Y28.3437 I-1.9125 J0.0
G2 Y31.6563 I0.9563 J1.6563
G0 Z10.0
G0 X154.1625 Y19.0
G1 F400.0 Z7.0
G2 F1500.0 X149.4188 Y16.2612 Z6.5 I-3.1625 J0.0
G2 Y21.7388 Z6.0 I1.5813 J2.7388
G2 X154.1625 Y19.0 Z5.5 I1.5813 J-2.7388
G2 X149.4188 Y16.2612 Z5.0 I-3.1625 J0.0
G2 Y21.7388 Z4.5 I1.5813 J2.7388
G2 X154.1625 Y19.0 Z4.0 I1.5813 J-2.7388
G2 X149.4188 Y16.2612 Z3.5 I-3.1625 J0.0
G2 Y21.7388 Z3.0 I1.5812 J2.7388
G2 X154.1625 Y19.0 Z2.5 I1.5813 J-2.7388
G2 X149.4188 Y16.2612 Z2.0 I-3.1625 J0.0
G2 Y21.7388 Z1.5 I1.5813 J2.7388
G2 X154.1625 Y19.0 Z1.0 I1.5812 J-2.7388
G2 X149.4188 Y16.2612 Z0.5 I-3.1625 J0.0
G2 Y21.7388 Z0.0 I1.5813 J2.7388
G2 X154.1625 Y19.0 I1.5812 J-2.7388
G2 X149.4188 Y16.2612 I-3.1625 J0.0
G2 Y21.7388 I1.5813 J2.7388
G0 Z10.0
G0 X154.1625 Y59.0
G1 F400.0 Z7.0
G2 F1500.0 X149.4188 Y56.2612 Z6.5 I-3.1625 J0.0
G2 Y61.7388 Z6.0 I1.5813 J2.7388
G2 X154.1625 Y59.0 Z5.5 I1.5813 J-2.7388
G2 X149.4188 Y56.2612 Z5.0 I-3.1625 J0.0
G2 Y61.7388 Z4.5 I1.5813 J2.7388
G2 X154.1625 Y59.0 Z4.0 I1.5813 J-2.7388
G2 X149.4188 Y56.2612 Z3.5 I-3.1625 J0.0
G2 Y61.7388 Z3.0 I1.5812 J2.7388
G2 X154.1625 Y59.0 Z2.5 I1.5813 J-2.7388
G2 X149.4188 Y56.2612 Z2.0 I-3.1625 J0.0
G2 Y61.7388 Z1.5 I1.5813 J2.7388
G2 X154.1625 Y59.0 Z1.0 I1.5812 J-2.7388
G2 X149.4188 Y56.2612 Z0.5 I-3.1625 J0.0
G2 Y61.7388 Z0.0 I1.5813 J2.7388
G2 X154.1625 Y59.0 I1.5812 J-2.7388
G2 X149.4188 Y56.2612 I-3.1625 J0.0
G2 Y61.7388 I1.5813 J2.7388
( Slots )
S1000
G0 Z10.0
G0 X78.0875 Y49.8565
G1 F400.0 Z5.5
G1 F1500.0 Y53.4125
G1 X77.6225 Y53.8775
G1 X78.0875 Y53.4125
G1 X89.9125
G1 X90.3775 Y53.8775
G1 X89.9125 Y53.4125
G1 Y49.8565
G1 X90.3775 Y49.3915
G1 X89.9125 Y49.8565
G1 X78.0875
G1 X77.6225 Y49.3915
G1 X78.0875 Y49.8565
G1 F400.0 Z4.0
G1 F1500.0 Y53.4125
G1 X77.6225 Y53.8775
G1 X78.0875 Y53.4125
G1 X89.9125
G1 X90.3775 Y53.8775
G1 X89.9125 Y53.4125
G1 Y49.8565
G1 X90.3775 Y49.3915
G1 X89.9125 Y49.8565
G1 X78.0875
G1 X77.6225 Y49.3915
G1 X78.0875 Y49.8565
G1 F400.0 Z2.5
G1 F1500.0 Y53.4125
G1 X77.6225 Y53.8775
G1 X78.0875 Y53.4125
G1 X89.9125
G1 X90.3775 Y53.8775
G1 X89.9125 Y53.4125
G1 Y49.8565
G1 X90.3775 Y49.3915
G1 X89.9125 Y49.8565
G1 X78.0875
G1 X77.6225 Y49.3915
G1 X78.0875 Y49.8565
G1 F400.0 Z1.0
G1 F1500.0 Y53.4125
G1 X77.6225 Y53.8775
G1 X78.0875 Y53.4125
G1 X89.9125
G1 X90.3775 Y53.8775
G1 X89.9125 Y53.4125
G1 Y49.8565
G1 X90.3775 Y49.3915
G1 X89.9125 Y49.8565
G1 X78.0875
G1 X77.6225 Y49.3915
G1 X78.0875 Y49.8565
G1 F400.0 Z0.0
G1 F1500.0 Y53.4125
G1 X77.6225 Y53.8775
G1 X78.0875 Y53.4125
G1 X89.9125
G1 X90.3775 Y53.8775
G1 X89.9125 Y53.4125
G1 Y49.8565
G1 X90.3775 Y49.3915
G1 X89.9125 Y49.8565
G1 X78.0875
G1 X77.6225 Y49.3915
G1 X78.0875 Y49.8565
G0 Z10.0
G0 X97.6225 Y68.1225
G1 F400.0 Z5.5
G1 F1500.0 X98.0875 Y68.5875
G1 Y72.1435
G1 X97.6225 Y72.6085
G1 X98.0875 Y72.1435
G1 X99.9125
G1 X100.3775 Y72.6085
G1 X99.9125 Y72.1435
G1 Y68.5875
G1 X100.3775 Y68.1225
G1 X99.9125 Y68.5875
G1 X98.0875
G1 X97.6225 Y68.1225
G1 F400.0 Z4.0
G1 F1500.0 X98.0875 Y68.5875
G1 Y72.1435
G1 X97.6225 Y72.6085
G1 X98.0875 Y72.1435
G1 X99.9125
G1 X100.3775 Y72.6085
G1 X99.9125 Y72.1435
G1 Y68.5875
G1 X100.3775 Y68.1225
G1 X99.9125 Y68.5875
G1 X98.0875
G1 X97.6225 Y68.1225
G1 F400.0 Z2.5
G1 F1500.0 X98.0875 Y68.5875
G1 Y72.1435
G1 X97.6225 Y72.6085
G1 X98.0875 Y72.1435
G1 X99.9125
G1 X100.3775 Y72.6085
G1 X99.9125 Y72.1435
G1 Y68.5875
G1 X100.3775 Y68.1225
G1 X99.9125 Y68.5875
G1 X98.0875
G1 X97.6225 Y68.1225
G1 F400.0 Z1.0
G1 F1500.0 X98.0875 Y68.5875
G1 Y72.1435
G1 X97.6225 Y72.6085
G1 X98.0875 Y72.1435
G1 X99.9125
G1 X100.3775 Y72.6085
G1 X99.9125 Y72.1435
G1 Y68.5875
G1 X100.3775 Y68.1225
G1 X99.9125 Y68.5875
G1 X98.0875
G1 X97.6225 Y68.1225
G1 F400.0 Z0.0
G1 F1500.0 X98.0875 Y68.5875
G1 Y72.1435
G1 X97.6225 Y72.6085
G1 X98.0875 Y72.1435
G1 X99.9125
G1 X100.3775 Y72.6085
G1 X99.9125 Y72.1435
G1 Y68.5875
G1 X100.3775 Y68.1225
G1 X99.9125 Y68.5875
G1 X98.0875
G1 X97.6225 Y68.1225
G0 Z10.0
G0 X107.6225 Y53.8775
G1 F400.0 Z5.5
G1 F1500.0 X108.0875 Y53.4125
G1 X119.9125
G1 X120.3775 Y53.8775
G1 X119.9125 Y53.4125
G1 Y49.8565
G1 X120.3775 Y49.3915
G1 X119.9125 Y49.8565
G1 X108.0875
G1 X107.6225 Y49.3915
G1 X108.0875 Y49.8565
G1 Y53.4125
G1 X107.6225 Y53.8775
G1 F400.0 Z4.0
G1 F1500.0 X108.0875 Y53.4125
G1 X119.9125
G1 X120.3775 Y53.8775
G1 X119.9125 Y53.4125
G1 Y49.8565
G1 X120.3775 Y49.3915
G1 X119.9125 Y49.8565
G1 X108.0875
G1 X107.6225 Y49.3915
G1 X108.0875 Y49.8565
G1 Y53.4125
G1 X107.6225 Y53.8775
G1 F400.0 Z2.5
G1 F1500.0 X108.0875 Y53.4125
G1 X119.9125
G1 X120.3775 Y53.8775
G1 X119.9125 Y53.4125
G1 Y49.8565
G1 X120.3775 Y49.3915
G1 X119.9125 Y49.8565
G1 X108.0875
G1 X107.6225 Y49.3915
G1 X108.0875 Y49.8565
G1 Y53.4125
G1 X107.6225 Y53.8775
G1 F400.0 Z1.0
G1 F1500.0 X108.0875 Y53.4125
G1 X119.9125
G1 X120.3775 Y53.8775
G1 X119.9125 Y53.4125
G1 Y49.8565
G1 X120.3775 Y49.3915
G1 X119.9125 Y49.8565
G1 X108.0875
G1 X107.6225 Y49.3915
G1 X108.0875 Y49.8565
G1 Y53.4125
G1 X107.6225 Y53.8775
G1 F400.0 Z0.0
G1 F1500.0 X108.0875 Y53.4125
G1 X119.9125
G1 X120.3775 Y53.8775
G1 X119.9125 Y53.4125
G1 Y49.8565
G1 X120.3775 Y49.3915
G1 X119.9125 Y49.8565
G1 X108.0875
G1 X107.6225 Y49.3915
G1 X108.0875 Y49.8565
G1 Y53.4125
G1 X107.6225 Y53.8775
G0 Z10.0
G0 X145.0875 Y44.0
G1 F400.0 Z5.5
G1 F1500.0 X151.9125
G1 X145.0875
G1 F400.0 Z4.0
G1 F1500.0 X151.9125
G1 X145.0875
G1 F400.0 Z2.5
G1 F1500.0 X151.9125
G1 X145.0875
G1 F400.0 Z1.0
G1 F1500.0 X151.9125
G1 X145.0875
G1 F400.0 Z0.0
G1 F1500.0 X151.9125
G1 X145.0875
G0 Z10.0
G0 Y34.0
G1 F400.0 Z5.5
G1 F1500.0 X151.9125
G1 X145.0875
G1 F400.0 Z4.0
G1 F1500.0 X151.9125
G1 X145.0875
G1 F400.0 Z2.5
G1 F1500.0 X151.9125
G1 X145.0875
G1 F400.0 Z1.0
G1 F1500.0 X151.9125
G1 X145.0875
G1 F400.0 Z0.0
G1 F1500.0 X151.9125
G1 X145.0875
( Hexes )
S1000
G0 Z10.0
G0 X172.8155 Y24.4125
G1 F400.0 Z5.5
G1 F1500.0 X173.631 Y23.0
G1 X172.3572 Y20.7938
G3 Y19.2063 I1.3748 J-0.7938
G1 X173.631 Y17.0
G1 X172.8155 Y15.5875
G1 X171.1845
G1 X170.369 Y17.0
G1 X171.6428 Y19.2063
G3 Y20.7938 I-1.3748 J0.7938
G1 X170.369 Y23.0
G1 X171.1845 Y24.4125
G1 X172.8155
G1 F400.0 Z4.0
G1 F1500.0 X173.631 Y23.0
G1 X172.3572 Y20.7938
G3 Y19.2063 I1.3748 J-0.7938
G1 X173.631 Y17.0
G1 X172.8155 Y15.5875
G1 X171.1845
G1 X170.369 Y17.0
G1 X171.6428 Y19.2063
G3 Y20.7938 I-1.3748 J0.7938
G1 X170.369 Y23.0
G1 X171.1845 Y24.4125
G1 X172.8155
G1 F400.0 Z3.0
G1 F1500.0 X173.631 Y23.0
G1 X172.3572 Y20.7938
G3 Y19.2063 I1.3748 J-0.7938
G1 X173.631 Y17.0
G1 X172.8155 Y15.5875
G1 X171.1845
G1 X170.369 Y17.0
G1 X171.6428 Y19.2063
G3 Y20.7938 I-1.3748 J0.7938
G1 X170.369 Y23.0
G1 X171.1845 Y24.4125
G1 X172.8155
( Outlines )
S1000
G0 Z10.0
G0 X156.0 Y7.4125
G1 F400.0 Z5.5
G3 F1500.0 X162.5875 Y14.0 I0.0 J6.5875
G1 Y31.5
G3 X161.0 Y33.0875 I-1.5875 J0.0
G1 X155.8565
G1 X155.3915 Y32.6225
G1 X155.8565 Y33.0875
G1 Y44.9125
G1 X155.3915 Y45.3775
G1 X155.8565 Y44.9125
G1 X161.0
G3 X162.5875 Y46.5 I0.0 J1.5875
G1 Y64.0
G3 X156.0 Y70.5875 I-6.5875 J0.0
G1 X141.0
G3 X139.4125 Y69.0 I0.0 J-1.5875
G1 Y63.0875
G1 X139.8775 Y62.6225
G1 X139.4125 Y63.0875
G1 X136.0
G3 X134.4125 Y61.5 I0.0 J-1.5875
G1 Y46.5
G3 X136.0 Y44.9125 I1.5875 J0.0
G1 X139.4125
G1 X139.8775 Y45.3775
G1 X139.4125 Y44.9125
G1 Y33.0875
G1 X139.8775 Y32.6225
G1 X139.4125 Y33.0875
G1 X136.0
G3 X134.4125 Y31.5 I0.0 J-1.5875
G1 Y16.5
G3 X136.0 Y14.9125 I1.5875 J0.0
G1 X139.4125
G1 X139.8775 Y15.3775
G1 X139.4125 Y14.9125
G1 Y9.0
G3 X141.0 Y7.4125 I1.5875 J0.0
G1 X156.0
G1 F400.0 Z4.0
G3 F1500.0 X162.5875 Y14.0 I0.0 J6.5875
G1 Y31.5
G3 X161.0 Y33.0875 I-1.5875 J0.0
G1 X155.8565
G1 X155.3915 Y32.6225
G1 X155.8565 Y33.0875
G1 Y44.9125
G1 X155.3915 Y45.3775
G1 X155.8565 Y44.9125
G1 X161.0
G3 X162.5875 Y46.5 I0.0 J1.5875
G1 Y64.0
G3 X156.0 Y70.5875 I-6.5875 J0.0
G1 X141.0
G3 X139.4125 Y69.0 I0.0 J-1.5875
G1 Y63.0875
G1 X139.8775 Y62.6225
G1 X139.4125 Y63.0875
G1 X136.0
G3 X134.4125 Y61.5 I0.0 J-1.5875
G1 Y46.5
G3 X136.0 Y44.9125 I1.5875 J0.0
G1 X139.4125
G1 X139.8775 Y45.3775
G1 X139.4125 Y44.9125
G1 Y33.0875
G1 X139.8775 Y32.6225
G1 X139.4125 Y33.0875
G1 X136.0
G3 X134.4125 Y31.5 I0.0 J-1.5875
G1 Y16.5
G3 X136.0 Y14.9125 I1.5875 J0.0
G1 X139.4125
G1 X139.8775 Y15.3775
G1 X139.4125 Y14.9125
G1 Y9.0
G3 X141.0 Y7.4125 I1.5875 J0.0
G1 X156.0
G1 F400.0 Z2.5
G3 F1500.0 X162.5875 Y14.0 I0.0 J6.5875
G1 Y31.5
G3 X161.0 Y33.0875 I-1.5875 J0.0
G1 X155.8565
G1 X155.3915 Y32.6225
G1 X155.8565 Y33.0875
G1 Y44.9125
G1 X155.3915 Y45.3775
G1 X155.8565 Y44.9125
G1 X161.0
G3 X162.5875 Y46.5 I0.0 J1.5875
G1 Y64.0
G3 X156.0 Y70.5875 I-6.5875 J0.0
G1 X153.0875
G0 Z3.0
G1 X146.9125
G1 F400.0 Z2.5
G1 F1500.0 X141.0
G3 X139.4125 Y69.0 I0.0 J-1.5875
G1 Y63.0875
G1 X139.8775 Y62.6225
G1 X139.4125 Y63.0875
G1 X136.0
G3 X134.4125 Y61.5 I0.0 J-1.5875
G1 Y46.5
G3 X136.0 Y44.9125 I1.5875 J0.0
G1 X139.4125
G1 X139.8775 Y45.3775
G1 X139.4125 Y44.9125
G1 Y33.0875
G1 X139.8775 Y32.6225
G1 X139.4125 Y33.0875
G1 X136.0
G3 X134.4125 Y31.5 I0.0 J-1.5875
G1 Y16.5
G3 X136.0 Y14.9125 I1.5875 J0.0
G1 X139.4125
G1 X139.8775 Y15.3775
G1 X139.4125 Y14.9125
G1 Y9.0
G3 X141.0 Y7.4125 I1.5875 J0.0
G1 X146.9125
G0 Z3.0
G1 X153.0875
G1 F400.0 Z2.5
G1 F1500.0 X156.0
G1 F400.0 Z1.0
G3 F1500.0 X162.5875 Y14.0 I0.0 J6.5875
G1 Y31.5
G3 X161.0 Y33.0875 I-1.5875 J0.0
G1 X155.8565
G1 X155.3915 Y32.6225
G1 X155.8565 Y33.0875
G1 Y44.9125
G1 X155.3915 Y45.3775
G1 X155.8565 Y44.9125
G1 X161.0
G3 X162.5875 Y46.5 I0.0 J1.5875
G1 Y64.0
G3 X156.0 Y70.5875 I-6.5875 J0.0
G1 X153.0875
G0 Z3.0
G1 X146.9125
G1 F400.0 Z1.0
G1 F1500.0 X141.0
G3 X139.4125 Y69.0 I0.0 J-1.5875
G1 Y63.0875
G1 X139.8775 Y62.6225
G1 X139.4125 Y63.0875
G1 X136.0
G3 X134.4125 Y61.5 I0.0 J-1.5875
G1 Y46.5
G3 X136.0 Y44.9125 I1.5875 J0.0
G1 X139.4125
G1 X139.8775 Y45.3775
G1 X139.4125 Y44.9125
G1 Y33.0875
G1 X139.8775 Y32.6225
G1 X139.4125 Y33.0875
G1 X136.0
G3 X134.4125 Y31.5 I0.0 J-1.5875
G1 Y16.5
G3 X136.0 Y14.9125 I1.5875 J0.0
G1 X139.4125
G1 X139.8775 Y15.3775
G1 X139.4125 Y14.9125
G1 Y9.0
G3 X141.0 Y7.4125 I1.5875 J0.0
G1 X146.9125
G0 Z3.0
G1 X153.0875
G1 F400.0 Z1.0
G1 F1500.0 X156.0
G1 F400.0 Z0.0
G3 F1500.0 X162.5875 Y14.0 I0.0 J6.5875
G1 Y31.5
G3 X161.0 Y33.0875 I-1.5875 J0.0
G1 X155.8565
G1 X155.3915 Y32.6225
G1 X155.8565 Y33.0875
G1 Y44.9125
G1 X155.3915 Y45.3775
G1 X155.8565 Y44.9125
G1 X161.0
G3 X162.5875 Y46.5 I0.0 J1.5875
G1 Y64.0
G3 X156.0 Y70.5875 I-6.5875 J0.0
G1 X153.0875
G0 Z3.0
G1 X146.9125
G1 F400.0 Z0.0
G1 F1500.0 X141.0
G3 X139.4125 Y69.0 I0.0 J-1.5875
G1 Y63.0875
G1 X139.8775 Y62.6225
G1 X139.4125 Y63.0875
G1 X136.0
G3 X134.4125 Y61.5 I0.0 J-1.5875
G1 Y46.5
G3 X136.0 Y44.9125 I1.5875 J0.0
G1 X139.4125
G1 X139.8775 Y45.3775
G1 X139.4125 Y44.9125
G1 Y33.0875
G1 X139.8775 Y32.6225
G1 X139.4125 Y33.0875
G1 X136.0
G3 X134.4125 Y31.5 I0.0 J-1.5875
G1 Y16.5
G3 X136.0 Y14.9125 I1.5875 J0.0
G1 X139.4125
G1 X139.8775 Y15.3775
G1 X139.4125 Y14.9125
G1 Y9.0
G3 X141.0 Y7.4125 I1.5875 J0.0
G1 X146.9125
G0 Z3.0
G1 X153.0875
G1 F400.0 Z0.0
G1 F1500.0 X156.0
G0 Z10.0
G0 X165.638 Y13.1844
G1 F400.0 Z5.5
G3 F1500.0 X167.0 Y12.4125 I1.362 J0.8156
G1 X169.5
G3 X167.9125 Y10.825 I0.0 J-1.5875
G1 Y7.269
G3 X169.5 Y5.6815 I1.5875 J0.0
G1 X184.5
G3 X186.0875 Y7.269 I0.0 J1.5875
G1 Y10.825
G3 X184.5 Y12.4125 I-1.5875 J0.0
G1 X187.0
G3 X188.5875 Y14.0 I0.0 J1.5875
G1 Y27.731
G3 X182.0 Y34.3185 I-6.5875 J0.0
G1 X179.5
G3 X177.9125 Y32.731 I0.0 J-1.5875
G1 Y29.175
G3 X179.5 Y27.5875 I1.5875 J0.0
G1 X174.5
G3 X176.0875 Y29.175 I0.0 J1.5875
G1 Y32.731
G3 X174.5 Y34.3185 I-1.5875 J0.0
G1 X172.0
G3 X165.4125 Y27.731 I0.0 J-6.5875
G1 Y14.0
G3 X165.638 Y13.1844 I1.5875 J0.0
G1 F400.0 Z4.0
G3 F1500.0 X167.0 Y12.4125 I1.362 J0.8156
G1 X169.5
G3 X167.9125 Y10.825 I0.0 J-1.5875
G1 Y7.269
G3 X169.5 Y5.6815 I1.5875 J0.0
G1 X184.5
G3 X186.0875 Y7.269 I0.0 J1.5875
G1 Y10.825
G3 X184.5 Y12.4125 I-1.5875 J0.0
G1 X187.0
G3 X188.5875 Y14.0 I0.0 J1.5875
G1 Y27.731
G3 X182.0 Y34.3185 I-6.5875 J0.0
G1 X179.5
G3 X177.9125 Y32.731 I0.0 J-1.5875
G1 Y29.175
G3 X179.5 Y27.5875 I1.5875 J0.0
G1 X174.5
G3 X176.0875 Y29.175 I0.0 J1.5875
G1 Y32.731
G3 X174.5 Y34.3185 I-1.5875 J0.0
G1 X172.0
G3 X165.4125 Y27.731 I0.0 J-6.5875
G1 Y14.0
G3 X165.638 Y13.1844 I1.5875 J0.0
G1 F400.0 Z2.5
G3 F1500.0 X167.0 Y12.4125 I1.362 J0.8156
G1 X169.5
G3 X167.9125 Y10.825 I0.0 J-1.5875
G1 Y7.269
G3 X169.5 Y5.6815 I1.5875 J0.0
G1 X173.9125
G0 Z3.0
G1 X180.0875
G1 F400.0 Z2.5
G1 F1500.0 X184.5
G3 X186.0875 Y7.269 I0.0 J1.5875
G1 Y10.825
G3 X184.5 Y12.4125 I-1.5875 J0.0
G1 X187.0
G3 X188.5875 Y14.0 I0.0 J1.5875
G1 Y18.9125
G0 Z3.0
G1 Y25.0875
G1 F400.0 Z2.5
G1 F1500.0 Y27.731
G3 X182.0 Y34.3185 I-6.5875 J0.0
G1 X179.5
G3 X177.9125 Y32.731 I0.0 J-1.5875
G1 Y29.175
G3 X179.5 Y27.5875 I1.5875 J0.0
G1 X174.5
G3 X176.0875 Y29.175 I0.0 J1.5875
G1 Y32.731
G3 X174.5 Y34.3185 I-1.5875 J0.0
G1 X172.0
G3 X165.4125 Y27.731 I0.0 J-6.5875
G1 Y14.0
G3 X165.638 Y13.1844 I1.5875 J0.0
G1 F400.0 Z1.0
G3 F1500.0 X167.0 Y12.4125 I1.362 J0.8156
G1 X169.5
G3 X167.9125 Y10.825 I0.0 J-1.5875
G1 Y7.269
G3 X169.5 Y5.6815 I1.5875 J0.0
G1 X173.9125
G0 Z3.0
G1 X180.0875
G1 F400.0 Z1.0
G1 F1500.0 X184.5
G3 X186.0875 Y7.269 I0.0 J1.5875
G1 Y10.825
G3 X184.5 Y12.4125 I-1.5875 J0.0
G1 X187.0
G3 X188.5875 Y14.0 I0.0 J1.5875
G1 Y18.9125
G0 Z3.0
G1 Y25.0875
G1 F400.0 Z1.0
G1 F1500.0 Y27.731
G3 X182.0 Y34.3185 I-6.5875 J0.0
G1 X179.5
G3 X177.9125 Y32.731 I0.0 J-1.5875
G1 Y29.175
G3 X179.5 Y27.5875 I1.5875 J0.0
G1 X174.5
G3 X176.0875 Y29.175 I0.0 J1.5875
G1 Y32.731
G3 X174.5 Y34.3185 I-1.5875 J0.0
G1 X172.0
G3 X165.4125 Y27.731 I0.0 J-6.5875
G1 Y14.0
G3 X165.638 Y13.1844 I1.5875 J0.0
G1 F400.0 Z0.0
G3 F1500.0 X167.0 Y12.4125 I1.362 J0.8156
G1 X169.5
G3 X167.9125 Y10.825 I0.0 J-1.5875
G1 Y7.269
G3 X169.5 Y5.6815 I1.5875 J0.0
G1 X173.9125
G0 Z3.0
G1 X180.0875
G1 F400.0 Z0.0
G1 F1500.0 X184.5
G3 X186.0875 Y7.269 I0.0 J1.5875
G1 Y10.825
G3 X184.5 Y12.4125 I-1.5875 J0.0
G1 X187.0
G3 X188.5875 Y14.0 I0.0 J1.5875
G1 Y18.9125
G0 Z3.0
G1 Y25.0875
G1 F400.0 Z0.0
G1 F1500.0 Y27.731
G3 X182.0 Y34.3185 I-6.5875 J0.0
G1 X179.5
G3 X177.9125 Y32.731 I0.0 J-1.5875
G1 Y29.175
G3 X179.5 Y27.5875 I1.5875 J0.0
G1 X174.5
G3 X176.0875 Y29.175 I0.0 J1.5875
G1 Y32.731
G3 X174.5 Y34.3185 I-1.5875 J0.0
G1 X172.0
G3 X165.4125 Y27.731 I0.0 J-6.5875
G1 Y14.0
G3 X165.638 Y13.1844 I1.5875 J0.0
G0 Z10.0
G0 X173.6582 Y41.7406
G1 F400.0 Z5.5
G3 F1500.0 X174.0875 Y41.6815 I0.4293 J1.5284
G1 X179.0875
G3 X180.675 Y43.269 I0.0 J1.5875
G1 Y46.824
G3 X179.0875 Y48.4115 I-1.5875 J0.0
G2 Y48.4125 I0.0 J0.0005
G1 X180.0
G3 X181.5875 Y50.0 I0.0 J1.5875
G1 Y63.269
G3 X180.0 Y64.8565 I-1.5875 J0.0
G1 X179.0875
G2 Y64.8575 I0.0 J0.0005
G3 X180.675 Y66.445 I0.0 J1.5875
G1 Y70.0
G3 X179.0875 Y71.5875 I-1.5875 J0.0
G1 X174.0875
G3 X172.5 Y70.0 I0.0 J-1.5875
G1 Y66.445
G3 X174.0875 Y64.8575 I1.5875 J0.0
G2 Y64.8565 I0.0 J-0.0005
G1 X173.175
G3 X171.5875 Y63.269 I0.0 J-1.5875
G1 Y50.0
G3 X173.175 Y48.4125 I1.5875 J0.0
G1 X174.0875
G2 Y48.4115 I0.0 J-0.0005
G3 X172.5 Y46.824 I0.0 J-1.5875
G1 Y43.269
G3 X173.6582 Y41.7406 I1.5875 J0.0
G1 F400.0 Z4.0
G3 F1500.0 X174.0875 Y41.6815 I0.4293 J1.5284
G1 X179.0875
G3 X180.675 Y43.269 I0.0 J1.5875
G1 Y46.824
G3 X179.0875 Y48.4115 I-1.5875 J0.0
G2 Y48.4125 I0.0 J0.0005
G1 X180.0
G3 X181.5875 Y50.0 I0.0 J1.5875
G1 Y63.269
G3 X180.0 Y64.8565 I-1.5875 J0.0
G1 X179.0875
G2 Y64.8575 I0.0 J0.0005
G3 X180.675 Y66.445 I0.0 J1.5875
G1 Y70.0
G3 X179.0875 Y71.5875 I-1.5875 J0.0
G1 X174.0875
G3 X172.5 Y70.0 I0.0 J-1.5875
G1 Y66.445
G3 X174.0875 Y64.8575 I1.5875 J0.0
G2 Y64.8565 I0.0 J-0.0005
G1 X173.175
G3 X171.5875 Y63.269 I0.0 J-1.5875
G1 Y50.0
G3 X173.175 Y48.4125 I1.5875 J0.0
G1 X174.0875
G2 Y48.4115 I0.0 J-0.0005
G3 X172.5 Y46.824 I0.0 J-1.5875
G1 Y43.269
G3 X173.6582 Y41.7406 I1.5875 J0.0
G1 F400.0 Z2.5
G3 F1500.0 X174.0875 Y41.6815 I0.4293 J1.5284
G1 X179.0875
G3 X180.675 Y43.269 I0.0 J1.5875
G1 Y46.824
G3 X179.0875 Y48.4115 I-1.5875 J0.0
G2 Y48.4125 I0.0 J0.0005
G1 X180.0
G3 X181.5875 Y50.0 I0.0 J1.5875
G1 Y53.9125
G0 Z3.0
G1 Y60.0875
G1 F400.0 Z2.5
G1 F1500.0 Y63.269
G3 X180.0 Y64.8565 I-1.5875 J0.0
G1 X179.0875
G2 Y64.8575 I0.0 J0.0005
G3 X180.675 Y66.445 I0.0 J1.5875
G1 Y70.0
G3 X179.0875 Y71.5875 I-1.5875 J0.0
G1 X174.0875
G3 X172.5 Y70.0 I0.0 J-1.5875
G1 Y66.445
G3 X174.0875 Y64.8575 I1.5875 J0.0
G2 Y64.8565 I0.0 J-0.0005
G1 X173.175
G3 X171.5875 Y63.269 I0.0 J-1.5875
G1 Y60.0875
G0 Z3.0
G1 Y53.9125
G1 F400.0 Z2.5
G1 F1500.0 Y50.0
G3 X173.175 Y48.4125 I1.5875 J0.0
G1 X174.0875
G2 Y48.4115 I0.0 J-0.0005
G3 X172.5 Y46.824 I0.0 J-1.5875
G1 Y43.269
G3 X173.6582 Y41.7406 I1.5875 J0.0
G1 F400.0 Z1.0
G3 F1500.0 X174.0875 Y41.6815 I0.4293 J1.5284
G1 X179.0875
G3 X180.675 Y43.269 I0.0 J1.5875
G1 Y46.824
G3 X179.0875 Y48.4115 I-1.5875 J0.0
G2 Y48.4125 I0.0 J0.0005
G1 X180.0
G3 X181.5875 Y50.0 I0.0 J1.5875
G1 Y53.9125
G0 Z3.0
G1 Y60.0875
G1 F400.0 Z1.0
G1 F1500.0 Y63.269
G3 X180.0 Y64.8565 I-1.5875 J0.0
G1 X179.0875
G2 Y64.8575 I0.0 J0.0005
G3 X180.675 Y66.445 I0.0 J1.5875
G1 Y70.0
G3 X179.0875 Y71.5875 I-1.5875 J0.0
G1 X174.0875
G3 X172.5 Y70.0 I0.0 J-1.5875
G1 Y66.445
G3 X174.0875 Y64.8575 I1.5875 J0.0
G2 Y64.8565 I0.0 J-0.0005
G1 X173.175
G3 X171.5875 Y63.269 I0.0 J-1.5875
G1 Y60.0875
G0 Z3.0
G1 Y53.9125
G1 F400.0 Z1.0
G1 F1500.0 Y50.0
G3 X173.175 Y48.4125 I1.5875 J0.0
G1 X174.0875
G2 Y48.4115 I0.0 J-0.0005
G3 X172.5 Y46.824 I0.0 J-1.5875
G1 Y43.269
G3 X173.6582 Y41.7406 I1.5875 J0.0
G1 F400.0 Z0.0
G3 F1500.0 X174.0875 Y41.6815 I0.4293 J1.5284
G1 X179.0875
G3 X180.675 Y43.269 I0.0 J1.5875
G1 Y46.824
G3 X179.0875 Y48.4115 I-1.5875 J0.0
G2 Y48.4125 I0.0 J0.0005
G1 X180.0
G3 X181.5875 Y50.0 I0.0 J1.5875
G1 Y53.9125
G0 Z3.0
G1 Y60.0875
G1 F400.0 Z0.0
G1 F1500.0 Y63.269
G3 X180.0 Y64.8565 I-1.5875 J0.0
G1 X179.0875
G2 Y64.8575 I0.0 J0.0005
G3 X180.675 Y66.445 I0.0 J1.5875
G1 Y70.0
G3 X179.0875 Y71.5875 I-1.5875 J0.0
G1 X174.0875
G3 X172.5 Y70.0 I0.0 J-1.5875
G1 Y66.445
G3 X174.0875 Y64.8575 I1.5875 J0.0
G2 Y64.8565 I0.0 J-0.0005
G1 X173.175
G3 X171.5875 Y63.269 I0.0 J-1.5875
G1 Y60.0875
G0 Z3.0
G1 Y53.9125
G1 F400.0 Z0.0
G1 F1500.0 Y50.0
G3 X173.175 Y48.4125 I1.5875 J0.0
G1 X174.0875
G2 Y48.4115 I0.0 J-0.0005
G3 X172.5 Y46.824 I0.0 J-1.5875
G1 Y43.269
G3 X173.6582 Y41.7406 I1.5875 J0.0
G0 Z10.0
G0 X130.5875
G1 F400.0 Z5.5
G1 F1500.0 Y55.0
G3 X109.0 Y76.5875 I-21.5875 J0.0
G1 X89.0
G3 X67.4125 Y55.0 I0.0 J-21.5875
G1 Y20.0
G3 X89.0 Y-1.5875 I21.5875 J0.0
G1 X109.0
G3 X130.5875 Y20.0 I0.0 J21.5875
G1 Y41.7406
G1 F400.0 Z4.0
G1 F1500.0 Y55.0
G3 X109.0 Y76.5875 I-21.5875 J0.0
G1 X89.0
G3 X67.4125 Y55.0 I0.0 J-21.5875
G1 Y20.0
G3 X89.0 Y-1.5875 I21.5875 J0.0
G1 X109.0
G3 X130.5875 Y20.0 I0.0 J21.5875
G1 Y41.7406
G1 F400.0 Z3.0
G1 F1500.0 Y42.0875
G1 F400.0 Z2.5
G1 F1500.0 Y55.0
G3 X109.0 Y76.5875 I-21.5875 J0.0
G1 X89.0
G3 X67.4125 Y55.0 I0.0 J-21.5875
G1 Y42.0875
G0 Z3.0
G1 Y35.9125
G1 F400.0 Z2.5
G1 F1500.0 Y20.0
G3 X89.0 Y-1.5875 I21.5875 J0.0
G1 X109.0
G3 X130.5875 Y20.0 I0.0 J21.5875
G1 Y35.9125
G0 Z3.0
G1 Y41.7406
G1 Y42.0875
G1 F400.0 Z1.0
G1 F1500.0 Y55.0
G3 X109.0 Y76.5875 I-21.5875 J0.0
G1 X89.0
G3 X67.4125 Y55.0 I0.0 J-21.5875
G1 Y42.0875
G0 Z3.0
G1 Y35.9125
G1 F400.0 Z1.0
G1 F1500.0 Y20.0
G3 X89.0 Y-1.5875 I21.5875 J0.0
G1 X109.0
G3 X130.5875 Y20.0 I0.0 J21.5875
G1 Y35.9125
G0 Z3.0
G1 Y41.7406
G1 Y42.0875
G1 F400.0 Z0.0
G1 F1500.0 Y55.0
G3 X109.0 Y76.5875 I-21.5875 J0.0
G1 X89.0
G3 X67.4125 Y55.0 I0.0 J-21.5875
G1 Y42.0875
G0 Z3.0
G1 Y35.9125
G1 F400.0 Z0.0
G1 F1500.0 Y20.0
G3 X89.0 Y-1.5875 I21.5875 J0.0
G1 X109.0
G3 X130.5875 Y20.0 I0.0 J21.5875
G1 Y35.9125
G0 Z3.0
G1 Y41.7406
G0 Z10.0
G0 X61.5875
G1 F400.0 Z5.5
G1 F1500.0 Y55.0
G3 X40.0 Y76.5875 I-21.5875 J0.0
G1 X20.0
G3 X-1.5875 Y55.0 I0.0 J-21.5875
G1 Y20.0
G3 X20.0 Y-1.5875 I21.5875 J0.0
G1 X40.0
G3 X61.5875 Y20.0 I0.0 J21.5875
G1 Y41.7406
G1 F400.0 Z4.0
G1 F1500.0 Y55.0
G3 X40.0 Y76.5875 I-21.5875 J0.0
G1 X20.0
G3 X-1.5875 Y55.0 I0.0 J-21.5875
G1 Y20.0
G3 X20.0 Y-1.5875 I21.5875 J0.0
G1 X40.0
G3 X61.5875 Y20.0 I0.0 J21.5875
G1 Y41.7406
G1 F400.0 Z3.0
G1 F1500.0 Y42.0875
G1 F400.0 Z2.5
G1 F1500.0 Y55.0
G3 X40.0 Y76.5875 I-21.5875 J0.0
G1 X20.0
G3 X-1.5875 Y55.0 I0.0 J-21.5875
G1 Y41.0875
G0 Z3.0
G1 Y34.9125
G1 F400.0 Z2.5
G1 F1500.0 Y20.0
G3 X20.0 Y-1.5875 I21.5875 J0.0
G1 X40.0
G3 X61.5875 Y20.0 I0.0 J21.5875
G1 Y35.9125
G0 Z3.0
G1 Y41.7406
G1 Y42.0875
G1 F400.0 Z1.0
G1 F1500.0 Y55.0
G3 X40.0 Y76.5875 I-21.5875 J0.0
G1 X20.0
G3 X-1.5875 Y55.0 I0.0 J-21.5875
G1 Y41.0875
G0 Z3.0
G1 Y34.9125
G1 F400.0 Z1.0
G1 F1500.0 Y20.0
G3 X20.0 Y-1.5875 I21.5875 J0.0
G1 X40.0
G3 X61.5875 Y20.0 I0.0 J21.5875
G1 Y35.9125
G0 Z3.0
G1 Y41.7406
G1 Y42.0875
G1 F400.0 Z0.0
G1 F1500.0 Y55.0
G3 X40.0 Y76.5875 I-21.5875 J0.0
G1 X20.0
G3 X-1.5875 Y55.0 I0.0 J-21.5875
G1 Y41.0875
G0 Z3.0
G1 Y34.9125
G1 F400.0 Z0.0
G1 F1500.0 Y20.0
G3 X20.0 Y-1.5875 I21.5875 J0.0
G1 X40.0
G3 X61.5875 Y20.0 I0.0 J21.5875
G1 Y35.9125
G0 Z3.0
G1 Y41.7406
G0 Z10.0
M5
M30
